!!!!SEGMENT: pl-sa--530-a-ix-10--006_anonim--instrumental-piece.krn
!!!cenid: 17xx:2020
!!!COM: Anonim
!!!COM-rismID: pe30004985
!!!CDT:
!!!CNT:
!!!OTL: [Instrumental piece]
!!!PDT:
!!!AGN: Secular
!!!YEC: Copyright 2022 Narodowy Instytut Fryderyka Chopina (https://polishscores.org)
!!!YEM: License CC-BY-4.0 (https://creativecommons.org/licenses/by/4.0)
!!!SMS-siglum: PL-SA
!!!SMS-shelfmark: 530/A IX 10
!!!SMS-shelfwork: 006 W
!!!SMS-variant:
!!!SMS-altvar:
!!!NIFC-rismSourceID: 1001092508
!!!NIFC-rismChildID: 1001092508
!!!NIFC-islandoraID: none
!!!URL-pdf-islandora:
!!!URL-scan: https://bc.bdsandomierz.pl/dlibra/publication/1422/edition/1390/content @EN{Scan in the Sandomierz Diocese Digital Library} @PL{Skany w portalu Cyfrowa Biblioteka Diecezjalna w Sandomierzu}
!!!IIIF:
!!!ONB-nifc: UWAGA: 6tum
!!!AIN: 1 cbass 2 violn
!!!key: D
**kern	**kern	**kern
*group1	*group1	*group1
*part3	*part2	*part1
*staff3	*staff2	*staff1
*I"Baſso	*I"Violino 2do	*I"Violino Primo
*I'[Cb]	*I'[Vl 2]	*I'[Vl 1]
*Icbass	*Ivioln	*Ivioln
*ICstr	*ICstr	*ICstr
*clefF4	*clefG2	*clefG2
*k[f#c#]	*k[f#c#]	*k[f#c#]
*D:	*D:	*D:
*M2/4	*M2/4	*M2/4
=1	=1	=1
!	!	!LO:TX:b:t=Allo
!LO:TX:a:t=Allo	!LO:TX:a:t=Atto.	!LO:TX:t=P:problem=all\right&colon; global
!LO:TX:t=P:problem=all\right&colon; global	!LO:TX:t=P:problem=all\right&colon; global	!
4D\	4dd\	8dd\L
.	.	8cc#\
4r	4r	8dd\
.	.	8ee\J
=2	=2	=2
*	*^	*
4D\	2a/	2f#\	8ff#\L
.	.	.	8ee\
4r	.	.	8ff#\
.	.	.	8dd\J
=3	=3	=3	=3
4D\	2a/	2f#\	8ff#\L
.	.	.	8aa\
4r	.	.	8ff#\
.	.	.	8dd\J
=4	=4	=4	=4
4D\	2a/	2f#\	8ff#\L
.	.	.	8aa\
4r	.	.	8ff#\
.	.	.	8dd\J
*	*v	*v	*
=5	=5	=5
4G\	8b\L	8gg\L
.	16b\L	16dd\L
.	16ccn\JJ	16ee\JJ
4r	8b\L	8dd\L
.	8b\J	8dd\J
=6	=6	=6
4G\	8b\L	8dd\L
!	!LO:SIC:v:s=8ccn	!
.	8cc#\	8ee\
4r	8a\	8ccn\
.	8f#\J	8a\J
=7	=7	=7
4G\	8g/L	8b\L
.	8b/J	8dd\
4r	4g/	8b\
.	.	8g\J
=8	=8	=8
!	!LO:TX:t=P:problem=t. 8-10 zapisane repetycją	!LO:TX:t=P:problem=t. 8-10 zapisane repetycją
4G\	8b\Lyy	8gg\Lyy
.	16b\Lyy	16dd\Lyy
.	16ccn\JJyy	16ee\JJyy
4r	8b\Lyy	8dd\Lyy
.	8b\Jyy	8dd\Jyy
=9	=9	=9
4G\	8b\Lyy	8dd\Lyy
!	!LO:SIC:v:s=8ccn	!
.	8cc#\yy	8ee\yy
4r	8a\yy	8ccn\yy
.	8f#\Jyy	8a\Jyy
=10	=10	=10
4G\	8g/Lyy	8b\Lyy
.	8b/Jyy	8dd\yy
4r	4g/yy	8b\yy
.	.	8g\Jyy
=11	=11	=11
4D\	8f#/L	8f#/L
.	8a/	8a/
4d\	8f#/	8d/
.	8a/J	8f#/J
=12	=12	=12
!!mixed beam:problem
!LO:TX:t=P:problem=mixed beam	!	!
8GG/L	8g/L	8g/L
8G\	8b/	8b/
8GG/	8g/	8g/
8G\J	8b/J	8dd/J
=13	=13	=13
!!mixed beam:problem
!LO:TX:t=P:problem=mixed beam	!	!LO:TX:t=P:problem=t. 13 zapisany repetycją
8GG/L	8g/L	8g/Lyy
8G\	8b/	8b/yy
8GG/	8b/	8g/yy
8G\J	8b/J	8dd/Jyy
=14	=14	=14
4G\	4G/ 4d/ 4b/ 4gg/	4G\ 4B\ 4g\ 4b\ 4gg\
4r	4r	4r
==;;	==;;	==;;
*-	*-	*-
!!!system-decoration: [(g1)]
!!!RDF**kern: > = above
!!!RDF**kern: < = below
!!!ENC: Katarzyna Serwa
!!!END: 2021-05-28
!!!EED: Jędrzej Mróz
!!!EEV: 2022-01-11
